X:1
T:Calum Fhionnlaigh
C:Trad./Arr. Dr Angus MacDonald
R:Reel
M:C|
L:1/8
K:D
B|dA A/A/A dfaf|e2ed fedB|A/A/A AB dfaf|edef d/d/d d:|
a|fdad fadf|edfd B/B/B Ba|fdad fadf|edfe ~d3a|
fdad fadf|edfd B/B/B Be|A/A/A AB dfaf|edef d/d/d d|]
